src/assets/svgs/footer-mail.svg

<svg xmlns="http://www.w3.org/2000/svg" width="20" height="20" viewBox="0 0 20 20" fill="none">
<path d="M15.8333 3.33325H4.16663C3.50358 3.33325 2.8677 3.59664 2.39886 4.06549C1.93002 4.53433 1.66663 5.17021 1.66663 5.83325V14.1666C1.66663 14.8296 1.93002 15.4655 2.39886 15.9344C2.8677 16.4032 3.50358 16.6666 4.16663 16.6666H15.8333C16.4963 16.6666 17.1322 16.4032 17.6011 15.9344C18.0699 15.4655 18.3333 14.8296 18.3333 14.1666V5.83325C18.3333 5.17021 18.0699 4.53433 17.6011 4.06549C17.1322 3.59664 16.4963 3.33325 15.8333 3.33325V3.33325ZM15.4916 4.99992L10.5916 9.89992C10.5142 9.97803 10.422 10.04 10.3204 10.0823C10.2189 10.1246 10.11 10.1464 9.99996 10.1464C9.88995 10.1464 9.78103 10.1246 9.67948 10.0823C9.57793 10.04 9.48576 9.97803 9.40829 9.89992L4.50829 4.99992H15.4916ZM16.6666 14.1666C16.6666 14.3876 16.5788 14.5996 16.4225 14.7558C16.2663 14.9121 16.0543 14.9999 15.8333 14.9999H4.16663C3.94561 14.9999 3.73365 14.9121 3.57737 14.7558C3.42109 14.5996 3.33329 14.3876 3.33329 14.1666V6.17492L8.23329 11.0749C8.70204 11.5431 9.33746 11.8061 9.99996 11.8061C10.6625 11.8061 11.2979 11.5431 11.7666 11.0749L16.6666 6.17492V14.1666Z" fill="#BABABA"/>
</svg>

<svg xmlns="http://www.w3.org/2000/svg" width="20" height="20" fill="none"><path d="M15.833 3.333H4.167a2.5 2.5 0 0 0-2.5 2.5v8.334a2.5 2.5 0 0 0 2.5 2.5h11.666a2.5 2.5 0 0 0 2.5-2.5V5.833a2.5 2.5 0 0 0-2.5-2.5ZM15.492 5l-4.9 4.9a.832.832 0 0 1-1.184 0L4.508 5h10.984Zm1.175 9.167a.833.833 0 0 1-.834.833H4.167a.833.833 0 0 1-.834-.833V6.175l4.9 4.9a2.5 2.5 0 0 0 3.534 0l4.9-4.9v7.992Z" fill="#BABABA"/></svg>
